X:604
T:
C:P. N. Pettersson
S:Av P. N. Pettersson Västringe i Etelhem, upptecknad som han själv spelat den.
R:schottis
O:Gotland, Etelhem
M:2/4
L:1/16
K:G
Bc|d2Bd g2Bc|d2Bd g2B2|B2A2c2F2|A2G2 GABc|
d2Bd g2Bc|d2Bd g2B2|B2A2c2F2|A2GG G2:|
K:C
|:d2|g2^fg a2g2|e4 c4|d2Bd g2B2|cdcB cdef|
g2^fg a2g2|e4 c4|d2Bd g2B2|c2cc c2:|

